X:1
T:Title
%%score 1 { 2 | 3 }
L:1/8
Q:1/4=97
M:3/4
K:C
V:1 treble nm="Grand Piano, Soprano"
V:2 treble nm="Choir Pad, Lombok, Clara H Scott, 1896"
V:3 bass 
V:1
 [EG][EG] [Ec]2 [EG]2 | [FA][GB] [FA]2 [EG]2 | [Gc][GB] [GB][FA] [Ac]2- | [Ac][FA] [EG]4 | %4
w: By~Clara~H.~Fiske~Scott,~1896 * * *||||
 [EG][EG] [E^G]2 [EG]2 | [EA][EB] [EA]>B [Ec]2 | [EB][EA] [GB][Gc] [GA]2 | [^Fd]2 [=Fd]4 | %8
w: ||||
 [Fe][Fd] [Ec]2 [EG]2 | [GB][FA] [FA]2 [EG]2 | [Cc][CE] [CD][CF] [CE]2 | [B,D]2 C4- | C4 z2 |] %13
w: |||||
V:2
 CC G,2 C2 | CC C2 C2 | CC CC C2- | CC C4 | CC D2 D2 | DD C>D E2 | DC[K:bass] B,A, D2 | C2 B,4 | %8
 B,G, G,2[K:treble] C2 | CC C2 C2 | G,G, A,A, G,2 | F,2 E,4- | E,4 z2 |] %13
V:3
 C,C, C,2 C,2 | C,C, C,2 C,2 | E,E, F,F, F,2- | F,F, C,4 | C,C, B,,2 B,,2 | E,E, A,,2 A,,2 | %6
 B,,C, D,D, D,2 | D,2 G,4 | G,,G,, C,2 C,2 | C,C, C,2 C,2 | E,E, F,D, z2 | G,,2 C,4- | C,4 z2 |] %13

